data/icons/hicolor/scalable/apps/io.github.itprojects.MasVisGtk.svg

<?xml version="1.0" encoding="UTF-8" standalone="no"?>
<!-- Created with Inkscape (http://www.inkscape.org/) -->

<svg
   width="128.00002"
   height="127.99999"
   viewBox="0 0 33.866671 33.866665"
   version="1.1"
   id="svg1"
   inkscape:version="1.3.2 (091e20ef0f, 2023-11-25)"
   sodipodi:docname="io.github.itprojects.MasVisGtk.svg"
   xmlns:inkscape="http://www.inkscape.org/namespaces/inkscape"
   xmlns:sodipodi="http://sodipodi.sourceforge.net/DTD/sodipodi-0.dtd"
   xmlns="http://www.w3.org/2000/svg"
   xmlns:svg="http://www.w3.org/2000/svg">
  <sodipodi:namedview
     id="namedview1"
     pagecolor="#ffffff"
     bordercolor="currentColor"
     borderopacity="0.25"
     inkscape:showpageshadow="2"
     inkscape:pageopacity="0.0"
     inkscape:pagecheckerboard="0"
     inkscape:deskcolor="#d1d1d1"
     inkscape:document-units="px"
     inkscape:zoom="6.5591012"
     inkscape:cx="79.126694"
     inkscape:cy="18.600109"
     inkscape:window-width="1920"
     inkscape:window-height="1043"
     inkscape:window-x="0"
     inkscape:window-y="0"
     inkscape:window-maximized="1"
     inkscape:current-layer="layer1"
     showgrid="false" />
  <defs
     id="defs1" />
  <g
     inkscape:label="Layer 1"
     inkscape:groupmode="layer"
     id="layer1"
     transform="translate(-32.279167,-138.64166)">
    <rect
       style="fill:#f7ffba;fill-opacity:1;stroke:#8a8a84;stroke-width:0.561948;stroke-dasharray:none;stroke-opacity:1"
       id="rect2"
       width="26.411985"
       height="27.065121"
       x="35.986572"
       y="142.29286"
       ry="1.7032644" />
    <path
       d="m 42.468477,165.31653 c 0.291359,0 0.504743,-0.21052 0.504743,-0.4763 v -11.57059 c 0,-0.26529 -0.213384,-0.47632 -0.504743,-0.47632 -0.284354,0 -0.496804,0.21103 -0.496804,0.47632 v 11.57059 c 0,0.26578 0.21245,0.4763 0.496804,0.4763 z m 4.134585,-1.36059 c 0.283889,0 0.497271,-0.21755 0.497271,-0.48283 v -8.83635 c 0,-0.26528 -0.213382,-0.48285 -0.497271,-0.48285 -0.284354,0 -0.505208,0.21757 -0.505208,0.48285 v 8.83635 c 0,0.26528 0.220854,0.48283 0.505208,0.48283 z m -6.194173,-1.10184 c 0.283421,0 0.496803,-0.21103 0.496803,-0.47632 v -6.64571 c 0,-0.26529 -0.213382,-0.4763 -0.496803,-0.4763 -0.291826,0 -0.504741,0.21101 -0.504741,0.4763 v 6.64571 c 0,0.26529 0.212915,0.47632 0.504741,0.47632 z m 4.127115,-0.73456 c 0.283887,0 0.503807,-0.21103 0.503807,-0.47632 v -5.17659 c 0,-0.26529 -0.21992,-0.4763 -0.503807,-0.4763 -0.284823,0 -0.497271,0.21101 -0.497271,0.4763 v 5.17659 c 0,0.26529 0.212448,0.47632 0.497271,0.47632 z m 4.134118,-1.21741 c 0.283887,0 0.496804,-0.21806 0.496804,-0.48335 v -2.72772 c 0,-0.26528 -0.212917,-0.48283 -0.496804,-0.48283 -0.291359,0 -0.504274,0.21755 -0.504274,0.48283 v 2.72772 c 0,0.26529 0.212915,0.48335 0.504274,0.48335 z m -10.328759,-0.5376 c 0.283887,0 0.497271,-0.21103 0.497271,-0.47632 v -1.66657 c 0,-0.26529 -0.213384,-0.47581 -0.497271,-0.47581 -0.290891,0 -0.504275,0.21052 -0.504275,0.47581 v 1.66657 c 0,0.26529 0.213384,0.47632 0.504275,0.47632 z"
       style="fill:#1b088f;stroke-width:0.484352"
       id="path1" />
    <path
       d="m 56.429402,152.82888 c -0.291359,0 -0.504743,0.21052 -0.504743,0.47632 v 11.5706 c 0,0.26529 0.213384,0.4763 0.504743,0.4763 0.284354,0 0.496802,-0.21101 0.496802,-0.4763 v -11.5706 c 0,-0.2658 -0.212448,-0.47632 -0.496802,-0.47632 z m -4.134587,1.3606 c -0.283887,0 -0.497269,0.21756 -0.497269,0.48285 v 8.83634 c 0,0.26529 0.213382,0.48284 0.497269,0.48284 0.284355,0 0.505209,-0.21755 0.505209,-0.48284 v -8.83634 c 0,-0.26529 -0.220854,-0.48285 -0.505209,-0.48285 z m 6.194175,1.10186 c -0.283422,0 -0.496804,0.21101 -0.496804,0.4763 v 6.64571 c 0,0.26528 0.213382,0.47632 0.496804,0.47632 0.291826,0 0.504741,-0.21104 0.504741,-0.47632 v -6.64571 c 0,-0.26529 -0.212915,-0.4763 -0.504741,-0.4763 z m -4.127115,0.73456 c -0.283889,0 -0.503807,0.21101 -0.503807,0.4763 v 5.17659 c 0,0.26528 0.219918,0.47632 0.503807,0.47632 0.284822,0 0.497271,-0.21104 0.497271,-0.47632 v -5.17659 c 0,-0.26529 -0.212449,-0.4763 -0.497271,-0.4763 z m -4.134119,1.21739 c -0.283888,0 -0.496803,0.21806 -0.496803,0.48334 v 2.72772 c 0,0.26529 0.212915,0.48285 0.496803,0.48285 0.291359,0 0.504274,-0.21756 0.504274,-0.48285 v -2.72772 c 0,-0.26528 -0.212915,-0.48334 -0.504274,-0.48334 z m 10.328759,0.53762 c -0.283887,0 -0.497271,0.21101 -0.497271,0.47629 v 1.66658 c 0,0.26529 0.213384,0.4758 0.497271,0.4758 0.290892,0 0.504276,-0.21051 0.504276,-0.4758 v -1.66658 c 0,-0.26528 -0.213384,-0.47629 -0.504276,-0.47629 z"
       style="fill:#800000;stroke-width:0.484352"
       id="path1-3" />
    <path
       d="m 37.82492,146.75531 v 3.98663 c 0,0.13083 0.105814,0.23919 0.233424,0.23919 0.127607,0 0.233424,-0.10843 0.233424,-0.23919 v -3.13188 l 1.515703,2.53868 c 0.03734,0.0638 0.127608,0.11488 0.199189,0.11488 0.07159,0 0.161835,-0.0511 0.199189,-0.11488 l 1.521928,-2.54187 v 3.14783 c 0,0.13084 0.105814,0.23919 0.233424,0.23919 0.127607,0 0.233424,-0.10843 0.233424,-0.23919 v -3.9962 c 0,-0.13064 -0.105815,-0.23919 -0.233424,-0.23919 -0.07159,0 -0.161835,0.0511 -0.199189,0.11489 l -1.755352,2.93096 -1.736678,-2.91182 c -0.04357,-0.0733 -0.130721,-0.13711 -0.211638,-0.13711 -0.136948,0 -0.233424,0.12116 -0.233424,0.2392 z m 6.576345,0.90897 c -0.871452,0 -1.521928,0.80051 -1.521928,1.67118 0,0.87387 0.653588,1.66162 1.506366,1.66162 0.413938,0 0.806093,-0.29341 1.079977,-0.59958 v 0.36358 c 0,0.12438 0.09647,0.22324 0.217863,0.22324 0.121381,0 0.217863,-0.0989 0.217863,-0.22324 v -2.88313 c 0,-0.12439 -0.09647,-0.22325 -0.217863,-0.22325 -0.121381,0 -0.189851,0.10198 -0.189851,0.22325 l -0.02802,0.40186 c -0.264548,-0.29341 -0.619353,-0.61553 -1.064415,-0.61553 z m 1.079978,1.65204 c 0,0.62191 -0.501085,1.20237 -1.09554,1.20237 -0.591342,0 -1.039516,-0.57088 -1.039516,-1.18323 0,-0.61872 0.451287,-1.1928 1.05819,-1.1928 0.597567,0 1.076866,0.55813 1.076866,1.17366 z m 2.642365,-1.668 c -0.650478,0 -1.425446,0.2966 -1.425446,1.00783 0,0.63784 0.619352,0.79413 1.15156,0.85791 0.395265,0.0479 1.235593,0.0192 1.235593,0.46244 0,0.42419 -0.52287,0.56451 -0.949258,0.56451 -0.497973,0 -0.883902,-0.15629 -1.061305,-0.50711 -0.03423,-0.0701 -0.124494,-0.12761 -0.2023,-0.12761 -0.124495,0 -0.224088,0.10198 -0.224088,0.22963 0,0.0319 0.0093,0.0797 0.02491,0.10843 0.248985,0.49753 0.815428,0.75906 1.462793,0.75906 0.687824,0 1.397433,-0.30937 1.397433,-1.02697 0,-0.66337 -0.625577,-0.8037 -1.19202,-0.8643 -0.379704,-0.0414 -1.195133,-0.0384 -1.195133,-0.45605 0,-0.39867 0.588228,-0.54537 0.974159,-0.54537 0.404602,0 0.72517,0.15629 0.874563,0.4433 0.03423,0.0701 0.124495,0.12438 0.199189,0.12438 0.124494,0 0.227199,-0.10197 0.227199,-0.22962 0,-0.0319 -0.01242,-0.083 -0.02802,-0.11166 -0.220975,-0.42417 -0.715835,-0.68889 -1.269828,-0.68889 z m 3.495141,-0.86748 c 0,0.0511 0.0063,0.0892 0.02179,0.12115 l 1.808261,3.98343 c 0.04357,0.0957 0.112041,0.14356 0.211638,0.14356 0.09647,0 0.189851,-0.0797 0.217863,-0.15305 l 1.624633,-4.02489 c 0.0093,-0.0255 0.01557,-0.0638 0.01557,-0.11489 0,-0.1052 -0.112041,-0.21688 -0.217863,-0.21688 -0.115154,0 -0.192964,0.0511 -0.233423,0.15306 l -1.41922,3.50183 -1.581062,-3.46676 c -0.04045,-0.0957 -0.115154,-0.14356 -0.230312,-0.14356 -0.102701,0 -0.217863,0.11489 -0.217863,0.21686 z m 4.702726,0.39867 c 0.180514,0 0.33613,-0.14983 0.33613,-0.33808 0,-0.18819 -0.155608,-0.33805 -0.33613,-0.33805 -0.180515,0 -0.336133,0.14983 -0.336133,0.33805 0,0.18819 0.155627,0.33808 0.336133,0.33808 z m -0.227201,0.69206 0.0063,2.8927 c 0,0.13388 0.102701,0.24238 0.233424,0.24238 0.127608,0 0.233424,-0.10843 0.233424,-0.23919 l -0.0063,-2.8608 c 0,-0.14356 -0.105814,-0.24238 -0.252098,-0.24238 -0.08715,0 -0.214749,0.0957 -0.214749,0.20729 z m 2.785533,-0.22325 c -0.650478,0 -1.425446,0.2966 -1.425446,1.00783 0,0.63784 0.619352,0.79413 1.15156,0.85791 0.395267,0.0479 1.235594,0.0192 1.235594,0.46244 0,0.42419 -0.522871,0.56451 -0.949259,0.56451 -0.497973,0 -0.883901,-0.15629 -1.061305,-0.50711 -0.03423,-0.0701 -0.124494,-0.12761 -0.2023,-0.12761 -0.124494,0 -0.224088,0.10198 -0.224088,0.22963 0,0.0319 0.0093,0.0797 0.02491,0.10843 0.248985,0.49753 0.815428,0.75906 1.462793,0.75906 0.687824,0 1.397434,-0.30937 1.397434,-1.02697 0,-0.66337 -0.625577,-0.8037 -1.192021,-0.8643 -0.379703,-0.0414 -1.195133,-0.0384 -1.195133,-0.45605 0,-0.39867 0.588231,-0.54537 0.974159,-0.54537 0.404603,0 0.725172,0.15629 0.874564,0.4433 0.03423,0.0701 0.124494,0.12438 0.199188,0.12438 0.124495,0 0.2272,-0.10197 0.2272,-0.22962 0,-0.0319 -0.01242,-0.083 -0.02802,-0.11166 -0.220974,-0.42417 -0.715834,-0.68889 -1.269828,-0.68889 z"
       id="text2"
       style="font-size:13px;white-space:pre;fill:#000000;fill-opacity:1;fill-rule:nonzero;stroke-width:0.496336"
       aria-label="Mas Vis" />
    <path
       d="m 46.202759,166.3156 c 0,0.70066 0.480455,1.17121 1.151128,1.17121 0.272203,0 0.526371,-0.0824 0.732984,-0.16996 0.04264,-0.0171 0.07707,-0.0704 0.07707,-0.1185 v -0.002 l -0.0065,-0.86207 c 0,-0.0705 -0.05574,-0.12704 -0.122975,-0.12704 h -0.664113 c -0.06723,0 -0.122974,0.0583 -0.122974,0.12875 0,0.0705 0.05574,0.12875 0.122974,0.12875 h 0.54113 l 0.005,0.64398 c -0.160705,0.0602 -0.368952,0.11849 -0.573924,0.11849 -0.531291,0 -0.896963,-0.36921 -0.896963,-0.91876 0,-0.53408 0.38371,-0.97198 0.916639,-0.97198 0.232852,0 0.465699,0.0824 0.642797,0.21293 0.01797,0.0133 0.05083,0.0241 0.07214,0.0241 0.06723,0 0.122993,-0.0583 0.122993,-0.12875 0,-0.0378 -0.02459,-0.0858 -0.05411,-0.10653 -0.226289,-0.16825 -0.473897,-0.26103 -0.792015,-0.26103 -0.68379,0 -1.151129,0.57187 -1.151129,1.23818 z m 2.27602,-1.09907 c 0,0.0704 0.05574,0.12362 0.122975,0.12362 h 0.696908 v 2.02129 c 0,0.0705 0.05246,0.12875 0.119695,0.12875 0.06723,0 0.126273,-0.0585 0.126273,-0.12875 v -2.02129 h 0.698548 c 0.06886,0 0.124624,-0.0619 0.124624,-0.13387 0,-0.0704 -0.05576,-0.12363 -0.122974,-0.12363 h -1.641425 c -0.06888,0 -0.124624,0.0619 -0.124624,0.13388 z m 2.166155,2.08139 c 0,0.11849 0.02952,0.18723 0.119695,0.18723 0.06395,0 0.126273,-0.0515 0.126273,-0.12704 0.0017,-0.091 0.0033,-0.36063 0.0065,-0.80886 l 0.223011,-0.20435 1.026505,1.09736 c 0.02622,0.0275 0.05411,0.0395 0.08363,0.0395 0.0656,0 0.127904,-0.0619 0.127904,-0.13217 0,-0.0293 -0.0098,-0.06 -0.03608,-0.0875 l -1.016667,-1.08878 0.947797,-0.85349 c 0.02952,-0.0275 0.04099,-0.0619 0.04099,-0.0944 0,-0.0704 -0.05576,-0.13749 -0.121344,-0.13749 -0.02624,0 -0.05411,0.0114 -0.08198,0.0378 l -1.192122,1.08018 c -0.0017,-0.33316 -0.0017,-0.66631 -0.0033,-1.00118 0,-0.0704 -0.05739,-0.13046 -0.124624,-0.13046 -0.06886,0 -0.121344,0.0583 -0.121344,0.13046 l -0.0017,1.65205 c 0,0.21466 -0.0033,0.34517 -0.0033,0.44134 z"
       id="text3"
       style="font-size:6.92423px;line-height:11.0788px;text-anchor:middle;white-space:pre;fill:#000000;fill-opacity:1;stroke-width:0.501767"
       aria-label="GTK" />
  </g>
</svg>

<?xml version="1.0" encoding="utf-8"?>
<svg width="128.00002" height="127.99999" viewBox="0 0 33.866671 33.866665" version="1.1" id="svg1" xmlns="http://www.w3.org/2000/svg">
  <defs id="defs1">
    <linearGradient id="blueGradient" x1="0%" y1="0%" x2="0%" y2="100%">
      <stop offset="0" style="stop-color:#4a90e2;stop-opacity:1"/>
      <stop offset="1" style="stop-color:#2171b5;stop-opacity:1"/>
    </linearGradient>
    <filter id="glow" x="-50%" y="-50%" width="200%" height="200%">
      <feGaussianBlur stdDeviation="2" result="coloredBlur"/>
      <feMerge>
        <feMergeNode in="coloredBlur"/>
        <feMergeNode in="SourceGraphic"/>
      </feMerge>
    </filter>
    <linearGradient id="redGradient" x1="0%" y1="0%" x2="0%" y2="100%">
      <stop offset="0" style="stop-color:#e74c3c;stop-opacity:1"/>
      <stop offset="1" style="stop-color:#c0392b;stop-opacity:1"/>
    </linearGradient>
  </defs>
  <g id="layer1" transform="translate(-32.279167,-138.64166)">
    <rect style="fill:#f7ffba;fill-opacity:1;stroke:#8a8a84;stroke-width:0.561948;stroke-dasharray:none;stroke-opacity:1" id="rect2" width="26.411985" height="27.065121" x="35.986572" y="142.29286" ry="1.7032644"/>
    <path d="M 37.825 146.755 L 37.825 150.742 C 37.825 150.873 37.931 150.981 38.058 150.981 C 38.186 150.981 38.292 150.873 38.292 150.742 L 38.292 147.61 L 39.807 150.149 C 39.845 150.213 39.935 150.264 40.007 150.264 C 40.078 150.264 40.168 150.213 40.206 150.149 L 41.728 147.607 L 41.728 150.755 C 41.728 150.886 41.834 150.994 41.961 150.994 C 42.089 150.994 42.195 150.885 42.195 150.755 L 42.195 146.759 C 42.195 146.628 42.089 146.519 41.961 146.519 C 41.89 146.519 41.799 146.57 41.762 146.634 L 40.007 149.565 L 38.27 146.653 C 38.226 146.58 38.139 146.516 38.058 146.516 C 37.921 146.516 37.825 146.637 37.825 146.755 Z M 44.401 147.664 C 43.53 147.664 42.879 148.465 42.879 149.335 C 42.879 150.209 43.533 150.997 44.386 150.997 C 44.8 150.997 45.192 150.704 45.466 150.398 L 45.466 150.761 C 45.466 150.885 45.562 150.984 45.684 150.984 C 45.805 150.984 45.901 150.885 45.901 150.761 L 45.901 147.878 C 45.901 147.754 45.805 147.655 45.684 147.655 C 45.562 147.655 45.494 147.757 45.494 147.878 L 45.466 148.28 C 45.201 147.986 44.846 147.664 44.401 147.664 Z M 45.481 149.316 C 45.481 149.938 44.98 150.519 44.386 150.519 C 43.794 150.519 43.346 149.948 43.346 149.335 C 43.346 148.717 43.797 148.143 44.404 148.143 C 45.002 148.143 45.481 148.701 45.481 149.316 Z M 48.124 147.648 C 47.473 147.648 46.698 147.945 46.698 148.656 C 46.698 149.294 47.318 149.45 47.85 149.514 C 48.245 149.562 49.085 149.533 49.085 149.977 C 49.085 150.401 48.562 150.541 48.136 150.541 C 47.638 150.541 47.252 150.385 47.075 150.034 C 47.041 149.964 46.95 149.906 46.872 149.906 C 46.748 149.906 46.648 150.008 46.648 150.136 C 46.648 150.168 46.658 150.216 46.673 150.244 C 46.922 150.742 47.489 151.003 48.136 151.003 C 48.824 151.003 49.533 150.694 49.533 149.976 C 49.533 149.313 48.908 149.173 48.341 149.112 C 47.962 149.071 47.146 149.074 47.146 148.656 C 47.146 148.257 47.735 148.111 48.121 148.111 C 48.525 148.111 48.846 148.267 48.995 148.554 C 49.029 148.624 49.12 148.678 49.194 148.678 C 49.319 148.678 49.421 148.576 49.421 148.449 C 49.421 148.417 49.409 148.366 49.393 148.337 C 49.172 147.913 48.678 147.648 48.124 147.648 Z M 51.619 146.781 C 51.619 146.832 51.625 146.87 51.641 146.902 L 53.449 150.885 C 53.492 150.981 53.561 151.029 53.66 151.029 C 53.757 151.029 53.85 150.949 53.878 150.876 L 55.503 146.851 C 55.512 146.826 55.519 146.787 55.519 146.736 C 55.519 146.631 55.406 146.519 55.301 146.519 C 55.185 146.519 55.108 146.57 55.067 146.672 L 53.648 150.174 L 52.067 146.707 C 52.026 146.612 51.952 146.564 51.837 146.564 C 51.734 146.564 51.619 146.679 51.619 146.781 Z M 56.321 147.18 C 56.502 147.18 56.658 147.03 56.658 146.841 C 56.658 146.653 56.502 146.503 56.321 146.503 C 56.141 146.503 55.985 146.653 55.985 146.841 C 55.985 147.03 56.141 147.18 56.321 147.18 Z M 56.094 147.872 L 56.101 150.764 C 56.101 150.898 56.203 151.007 56.334 151.007 C 56.462 151.007 56.567 150.898 56.567 150.767 L 56.561 147.907 C 56.561 147.763 56.455 147.664 56.309 147.664 C 56.222 147.664 56.094 147.76 56.094 147.872 Z M 58.88 147.648 C 58.229 147.648 57.454 147.945 57.454 148.656 C 57.454 149.294 58.074 149.45 58.606 149.514 C 59.001 149.562 59.842 149.533 59.842 149.977 C 59.842 150.401 59.319 150.541 58.892 150.541 C 58.394 150.541 58.008 150.385 57.831 150.034 C 57.797 149.964 57.706 149.906 57.629 149.906 C 57.504 149.906 57.405 150.008 57.405 150.136 C 57.405 150.168 57.414 150.216 57.429 150.244 C 57.678 150.742 58.245 151.003 58.892 151.003 C 59.58 151.003 60.29 150.694 60.29 149.976 C 60.29 149.313 59.664 149.173 59.098 149.112 C 58.718 149.071 57.903 149.074 57.903 148.656 C 57.903 148.257 58.491 148.111 58.877 148.111 C 59.281 148.111 59.602 148.267 59.751 148.554 C 59.785 148.624 59.876 148.678 59.95 148.678 C 60.075 148.678 60.178 148.576 60.178 148.449 C 60.178 148.417 60.165 148.366 60.15 148.337 C 59.929 147.913 59.434 147.648 58.88 147.648 Z" id="text2" style="font-size:13px;white-space:pre;fill:#000000;fill-opacity:1;fill-rule:nonzero;stroke-width:0.496336" aria-label="Mas Vis"/>
    <path d="m 46.202759,166.3156 c 0,0.70066 0.480455,1.17121 1.151128,1.17121 0.272203,0 0.526371,-0.0824 0.732984,-0.16996 0.04264,-0.0171 0.07707,-0.0704 0.07707,-0.1185 v -0.002 l -0.0065,-0.86207 c 0,-0.0705 -0.05574,-0.12704 -0.122975,-0.12704 h -0.664113 c -0.06723,0 -0.122974,0.0583 -0.122974,0.12875 0,0.0705 0.05574,0.12875 0.122974,0.12875 h 0.54113 l 0.005,0.64398 c -0.160705,0.0602 -0.368952,0.11849 -0.573924,0.11849 -0.531291,0 -0.896963,-0.36921 -0.896963,-0.91876 0,-0.53408 0.38371,-0.97198 0.916639,-0.97198 0.232852,0 0.465699,0.0824 0.642797,0.21293 0.01797,0.0133 0.05083,0.0241 0.07214,0.0241 0.06723,0 0.122993,-0.0583 0.122993,-0.12875 0,-0.0378 -0.02459,-0.0858 -0.05411,-0.10653 -0.226289,-0.16825 -0.473897,-0.26103 -0.792015,-0.26103 -0.68379,0 -1.151129,0.57187 -1.151129,1.23818 z m 2.27602,-1.09907 c 0,0.0704 0.05574,0.12362 0.122975,0.12362 h 0.696908 v 2.02129 c 0,0.0705 0.05246,0.12875 0.119695,0.12875 0.06723,0 0.126273,-0.0585 0.126273,-0.12875 v -2.02129 h 0.698548 c 0.06886,0 0.124624,-0.0619 0.124624,-0.13387 0,-0.0704 -0.05576,-0.12363 -0.122974,-0.12363 h -1.641425 c -0.06888,0 -0.124624,0.0619 -0.124624,0.13388 z m 2.166155,2.08139 c 0,0.11849 0.02952,0.18723 0.119695,0.18723 0.06395,0 0.126273,-0.0515 0.126273,-0.12704 0.0017,-0.091 0.0033,-0.36063 0.0065,-0.80886 l 0.223011,-0.20435 1.026505,1.09736 c 0.02622,0.0275 0.05411,0.0395 0.08363,0.0395 0.0656,0 0.127904,-0.0619 0.127904,-0.13217 0,-0.0293 -0.0098,-0.06 -0.03608,-0.0875 l -1.016667,-1.08878 0.947797,-0.85349 c 0.02952,-0.0275 0.04099,-0.0619 0.04099,-0.0944 0,-0.0704 -0.05576,-0.13749 -0.121344,-0.13749 -0.02624,0 -0.05411,0.0114 -0.08198,0.0378 l -1.192122,1.08018 c -0.0017,-0.33316 -0.0017,-0.66631 -0.0033,-1.00118 0,-0.0704 -0.05739,-0.13046 -0.124624,-0.13046 -0.06886,0 -0.121344,0.0583 -0.121344,0.13046 l -0.0017,1.65205 c 0,0.21466 -0.0033,0.34517 -0.0033,0.44134 z" id="text3" style="font-size: 6.92423px; line-height: 11.0788px; text-anchor: middle; white-space: pre; fill-opacity: 1; stroke-width: 0.501767; fill: rgb(74, 144, 226);" aria-label="GTK"/>
    <g transform="matrix(0.068695, 0, 0, 0.079331, 37.190876, 150.734528)" style="">
      <rect x="0" y="80" width="18" height="40" rx="9" fill="url(#blueGradient)" filter="url(#glow)" opacity="0.8"/>
      <rect x="25" y="50" width="20" height="100" rx="10" fill="url(#blueGradient)" filter="url(#glow)"/>
      <rect x="52" y="25" width="22" height="150" rx="11" fill="url(#blueGradient)" filter="url(#glow)"/>
      <rect x="81" y="60" width="19" height="80" rx="9.5" fill="url(#blueGradient)" filter="url(#glow)" opacity="0.9"/>
      <rect x="107" y="35" width="21" height="130" rx="10.5" fill="url(#blueGradient)" filter="url(#glow)"/>
      <rect x="135" y="70" width="17" height="60" rx="8.5" fill="url(#blueGradient)" filter="url(#glow)" opacity="0.7"/>
      <circle cx="165" cy="100" r="4" fill="#95a5a6" opacity="0.4"/>
      <circle cx="175" cy="95" r="3" fill="#95a5a6" opacity="0.3"/>
      <circle cx="185" cy="105" r="3.5" fill="#95a5a6" opacity="0.3"/>
      <rect x="200" y="75" width="17" height="50" rx="8.5" fill="url(#redGradient)" filter="url(#glow)" opacity="0.8"/>
      <rect x="224" y="40" width="21" height="120" rx="10.5" fill="url(#redGradient)" filter="url(#glow)"/>
      <rect x="252" y="15" width="23" height="170" rx="11.5" fill="url(#redGradient)" filter="url(#glow)"/>
      <rect x="282" y="55" width="20" height="90" rx="10" fill="url(#redGradient)" filter="url(#glow)" opacity="0.9"/>
      <rect x="309" y="30" width="19" height="140" rx="9.5" fill="url(#redGradient)" filter="url(#glow)"/>
      <rect x="335" y="85" width="15" height="30" rx="7.5" fill="url(#redGradient)" filter="url(#glow)" opacity="0.6"/>
    </g>
  </g>
</svg>
